svgs/diskusage.svg

<svg xmlns="http://www.w3.org/2000/svg" viewBox="0 0 192 192"><path d="M24.165 47.562a7.638 7.638 0 0 0-3.833 1.033 7.688 7.688 0 0 0-2.805 2.823 7.743 7.743 0 0 0-1.027 3.855v93.637c0 1.353.354 2.683 1.027 3.855a7.695 7.695 0 0 0 2.805 2.823 7.638 7.638 0 0 0 3.833 1.033H59.96l7.257-12.633h15.451v12.633H96l7.257-12.633h31.433L90.17 90.669l-4.403-4.881 60.216-38.431Zm110.525 96.426 10.6 12.633h22.545a7.644 7.644 0 0 0 5.42-2.259 7.735 7.735 0 0 0 2.245-5.452V97.395H95.674" fill="none" stroke="#000" stroke-width="12" stroke-linecap="round" stroke-linejoin="round"/><path d="m145.983 47.562 19.08-12.181v62.014" fill="none" stroke="#000" stroke-width="12" stroke-linecap="round" stroke-linejoin="round"/></svg>

<svg
    xmlns="http://www.w3.org/2000/svg"
    viewBox="0 0 192 192"
    id="vector">
    <path
        id="path"
        d="M 24.165 47.562 C 22.819 47.562 21.497 47.919 20.332 48.595 C 19.167 49.272 18.2 50.245 17.527 51.418 C 16.854 52.59 16.5 53.92 16.5 55.273 L 16.5 148.91 C 16.5 150.263 16.854 151.593 17.527 152.765 C 18.2 153.937 19.167 154.911 20.332 155.588 C 21.497 156.264 22.819 156.621 24.165 156.621 L 59.96 156.621 L 67.217 143.988 L 82.668 143.988 L 82.668 156.621 L 96 156.621 L 103.257 143.988 L 134.69 143.988 L 90.17 90.669 L 85.767 85.788 L 145.983 47.357 Z M 134.69 143.988 L 145.29 156.621 L 167.835 156.621 C 169.867 156.621 171.818 155.808 173.255 154.362 C 174.692 152.917 175.5 150.954 175.5 148.91 L 175.5 97.395 L 95.674 97.395"
        fill="none"
        stroke="#000000"
        stroke-width="12"
        stroke-linecap="round"
        stroke-linejoin="round"/>
    <path
        id="path_1"
        d="M 145.983 47.562 L 165.063 35.381 L 165.063 97.395"
        fill="none"
        stroke="#000000"
        stroke-width="12"
        stroke-linecap="round"
        stroke-linejoin="round"/>
</svg>
